packages/dnb-eufemia/assets/icons/caravan_medium.svg

<svg width="24" height="24" viewBox="0 0 24 24" fill="none" xmlns="http://www.w3.org/2000/svg">
<path d="M20.25 19.5C20.25 20.3284 19.5784 21 18.75 21C17.9216 21 17.25 20.3284 17.25 19.5M20.25 19.5C20.25 18.6716 19.5784 18 18.75 18C17.9216 18 17.25 18.6716 17.25 19.5M20.25 19.5H21.75C22.567 19.5 23.25 18.817 23.25 18V15M17.25 19.5H14.25M6.75 19.5C6.75 20.3284 6.07843 21 5.25 21C4.42157 21 3.75 20.3284 3.75 19.5M6.75 19.5C6.75 18.6716 6.07843 18 5.25 18C4.42157 18 3.75 18.6716 3.75 19.5M6.75 19.5H14.25M3.75 19.5H2.25C1.433 19.5 0.75 18.817 0.75 18V12M23.25 15C23.2502 14.5123 23.0977 14.0367 22.814 13.64L19.5 9M23.25 15H14.25M14.25 12V9H19.5M14.25 12H0.75M14.25 12V15M0.75 12V6C0.75 4.366 2.116 3 3.75 3H20.25C21.884 3 23.25 4.366 23.25 6C23.25 7.634 21.884 9 20.25 9H19.5M14.25 19.5V15" stroke="black" stroke-width="1.5" stroke-linecap="round" stroke-linejoin="round"/>
</svg>

<svg width="24" height="24" viewBox="0 0 24 24" fill="none" xmlns="http://www.w3.org/2000/svg"><path d="M20.25 19.5a1.5 1.5 0 0 1-3 0m3 0a1.5 1.5 0 0 0-3 0m3 0h1.5c.817 0 1.5-.683 1.5-1.5v-3m-6 4.5h-3m-7.5 0a1.5 1.5 0 0 1-3 0m3 0a1.5 1.5 0 0 0-3 0m3 0h7.5m-10.5 0h-1.5c-.817 0-1.5-.683-1.5-1.5v-6m22.5 3c0-.488-.152-.963-.436-1.36L19.5 9m3.75 6h-9m0-3V9h5.25m-5.25 3H.75m13.5 0v3M.75 12V6c0-1.634 1.366-3 3-3h16.5c1.634 0 3 1.366 3 3s-1.366 3-3 3h-.75m-5.25 10.5V15" stroke="#000" stroke-width="1.5" stroke-linecap="round" stroke-linejoin="round"/></svg>
